icons/triangle-chevron-up.svg

<svg xmlns="http://www.w3.org/2000/svg" width="24" height="24" viewBox="0 0 24 24">
  <path d="M9.37135227,3.70432092 C10.1698214,2.25255887 11.9939942,1.72296031 13.4457562,2.52142944 C13.9442354,2.79559297 14.3544842,3.20584177 14.6286477,3.70432092 L14.6286477,3.70432092 L22.2461053,17.5542438 C23.0445744,19.0060058 22.5149759,20.8301786 21.0632138,21.6286477 C20.6202789,21.8722619 20.1229665,22 19.6174576,22 L19.6174576,22 L4.38254244,22 C2.72568819,22 1.38254244,20.6568542 1.38254244,19 C1.38254244,18.4944911 1.5102805,17.9971787 1.75389472,17.5542438 L1.75389472,17.5542438 Z M12.6128994,12.7097046 C12.2206082,12.4046797 11.6533772,12.4324093 11.2928932,12.7928932 L11.2928932,12.7928932 L8.29289322,15.7928932 L8.20970461,15.8871006 C7.90467972,16.2793918 7.93240926,16.8466228 8.29289322,17.2071068 L8.29289322,17.2071068 L8.38710056,17.2902954 C8.77939176,17.5953203 9.34662282,17.5675907 9.70710678,17.2071068 L9.70710678,17.2071068 L12,14.915 L14.2928932,17.2071068 L14.3871006,17.2902954 C14.7793918,17.5953203 15.3466228,17.5675907 15.7071068,17.2071068 C16.0976311,16.8165825 16.0976311,16.1834175 15.7071068,15.7928932 L15.7071068,15.7928932 L12.7071068,12.7928932 Z"/>
</svg>

<svg xmlns="http://www.w3.org/2000/svg" viewBox="0 0 24 24">
  <path d="M9.37 3.7a3 3 0 0 1 5.26 0l7.62 13.85A3 3 0 0 1 19.62 22H4.38a3 3 0 0 1-2.63-4.45zm3.24 9.01a1 1 0 0 0-1.32.08l-3 3-.08.1a1 1 0 0 0 .08 1.32l.1.08a1 1 0 0 0 1.32-.08L12 14.9l2.3 2.3.09.08a1 1 0 0 0 1.32-1.5l-3-3z"/>
</svg>
